X:1
T:THE HIGH ROAD TO LINTON
M:C
L:1/8
Q:80
C:Traditional
S:Reel
K:HP
|: {g}c/2e3/2{A}e3/2f/2{ag}a3e | \
{gf}g2{a}f3/2e/2{ag}a2c/2{d}A3/2 | \
{g}c/2e3/2{A}e3/2f/2{ag}a3e |
{g}f/2a3/2e3/2c/2{gBd}B2{G}A2 :: \
{g}c/2e3/2{A}e3/2g/2{a}f3/2d/2{G}d3/2f/2 | \
{gef}e3/2c/2{A}c3/2e/2{g}f3/2B/2{G}B3/2d/2 |
{g}c/2e3/2{A}e3/2g/2{a}f3/2d/2{G}d3/2f/2 | \
{gef}e3/2c/2a3/2c/2{gBd}B2{G}A2 :|
